X: 40275
T: Tobin's Favourite
R: jig
M: 6/8
K: Gmajor
|:E|D2G GFG|A2G FGA|BAB cBc|A2G FGE|
D2G GFG|A2G FGA|BAB cAF|AGF G2:|
|:c|B2d dcB|ABc ABc|BAB cBc|A2G FGE|
D2G GFG|A2G FGA|BAB cAF|AGF G2:|
K: Dmaj
|:B|A2d dcd|e2d cde|fef gfg|e2d cdB|
A2d dcd|e2d cde|fef gec|edc d2:|
|:g|f2a agf|efg efg|fef gfg|e2d cdB|
A2d dcd|e2d cde|fef gec|edc d2:|

